symbolic/22x22/actions/document-save-all.svg

<svg xmlns="http://www.w3.org/2000/svg" width="22" height="22"><defs><style id="current-color-scheme" type="text/css"></style></defs><path style="fill:currentColor;color:#323a41" d="M6 1v6H3.5L7 12.055V9c0-1 1-1 1-1h3.809l.691-1H10V1zM1 14v2h7s-1 0-1-1v-1zm8-5s-1 0-1 1v5c0 1 1 1 1 1h6s1 0 1-1v-5c0-1-1-1-1-1zm1 1h4v5h-1v-2h-2v2h-1zm1 1v1h2v-1z" transform="translate(3 3)"/></svg>

<svg xmlns="http://www.w3.org/2000/svg" width="22" height="22" version="1.1">
 <defs>
  <style id="current-color-scheme" type="text/css">
   .ColorScheme-Text { color:#323a41; } .ColorScheme-Highlight { color:#4285f4; } .ColorScheme-NeutralText { color:#ff9800; } .ColorScheme-PositiveText { color:#4caf50; } .ColorScheme-NegativeText { color:#f44336; }
  </style>
 </defs>
 <g transform="translate(3,3)">
  <path style="fill:currentColor" class="ColorScheme-Text" d="M 6,1 V 7 H 3.5 L 7,12.055 V 9 C 7,8 8,8 8,8 H 11.809 L 12.5,7 H 10 V 1 Z M 1,14 V 16 H 8 C 8,16 7,16 7,15 V 14 Z M 9,9 C 9,9 8,9 8,10 V 15 C 8,16 9,16 9,16 H 15 C 15,16 16,16 16,15 V 10 C 16,9 15,9 15,9 Z M 10,10 H 14 V 15 H 13 V 13 H 11 V 15 H 10 Z M 11,11 V 12 H 13 V 11 Z"/>
 </g>
</svg>
